X:1
T:Jan's courtship - rowe
T:Sent me by R. Rowe, Longabrook, Milton Abbott. 
T:Same taken down by me from H. Chowen, Burnville, Brentor.  Oct. 1889.
%%VWML:SBG-1-1-156-0
F:http://www.vwml.org/record/SBG/1/1/156
Z:Original Sibleius Transcription by Martin and Shan Graebe
M:6/8
L:1/8
K:Em
z4zF | GF GE2F | GF GE2F | G>F G A> G A | B3z2B | BA Bc BA |
Bc BA GF | EB BB AB | G2 E/E/|E2 E/E/  E2 =G/A/ | B cB AG A|B2E/E/  E2z ||
T:Jan's courtship - webber
T:Sent me by Mr. Webber of Tiverton, as sung in farm-houses about that part. 
T:There called “Sweet Robin”.
M:6/8
L:1/8
K:Eb
C |E>FE G>AG | F>GF E2 B,| E>F EG FE | !fermata!F3zz2  B,|E>F E G>F G|AG A !fermata!B2 B/B/| 
Bc BA GF| Ez !>!B,!>!E3 | B2 BB2 z| c2  B!fermata! e2B|Bc BA  GF|Ez !>!C!>!E2||
T:Jan's courtship - beggar's opera
T:“Now Roger; I’ll tell thee, because thou’rt my Son”  
T:Beggar’s Opera Act III. sc.8 Air XLVIII
M:6/4
L:1/4
K:Gm
A|BAGBcd|cBAcdc|BAGGBc|(d3d2):||
|:d|edefed|cBcd2B/c/|d>edcAB|
G3A3|(B3B2)B/c/|d>edcAd|(G3G2):||
T:Jan's courtship - spence bate
T:Sent by M. C. Spence Bate, as taken down from one of the singers at Sth. Brent.
M:6/8
L:1/8
K:F
AA AA  A2| BBB  BBB | (c/c/c)f ccA |G3z2 G | AAA AAA| BBB B2B/B/ |
c2 f B/B/ | A2 FF2 |A2A !fermata! A2z |B2 B!fermata!B2z |c2 f c2  B/B/|A2F !fermata!F2z ||


